fonts/piswpi/uni0058.svg

<svg width="500" height="900" xmlns="http://www.w3.org/2000/svg">
    <path d="M250 300a150 150 0 0 0-150 150 150 150 0 0 0 150 150 150 150 0 0 0 150-150 150 150 0 0 0-150-150zm0 300a50 50 0 0 0-50 50 50 50 0 0 0 50 50 50 50 0 0 0 50-50 50 50 0 0 0-50-50zM100 450a50 50 0 0 0-50-50 50 50 0 0 0-50 50 50 50 0 0 0 50 50 50 50 0 0 0 50-50zm2.98 91.736a50 50 0 0 0-29.757 14.33 50 50 0 0 0-14.518 38.922 50 50 0 0 0 14.518 31.79 50 50 0 0 0 70.71 0 50 50 0 0 0 0-70.712 50 50 0 0 0-40.953-14.33z"/>
</svg>

<svg width="500" height="900" xmlns="http://www.w3.org/2000/svg">
    <path
        d="M 50 400 A 50 50 0 0 0 0 450 A 50 50 0 0 0 50 500 A 50 50 0 0 0 100 450 A 50 50 0 0 0 50 400 z M 108.57812 541.42188 A 50 50 0 0 0 58.578125 591.42188 A 50 50 0 0 0 108.57812 641.42188 A 50 50 0 0 0 158.57812 591.42188 A 50 50 0 0 0 108.57812 541.42188 z M 250 600 A 50 50 0 0 0 200 650 A 50 50 0 0 0 250 700 A 50 50 0 0 0 300 650 A 50 50 0 0 0 250 600 z " />
    <path d="M 400,450 A 150,150 0 0 1 250,600 150,150 0 0 1 100,450 150,150 0 0 1 250,300 150,150 0 0 1 400,450 Z" />
</svg>
